X:1
T:Title
%%score { ( 1 3 ) | ( 2 4 ) }
L:1/8
M:3/4
K:G
V:1 treble nm="Grand Piano"
V:3 treble 
V:2 bass 
V:4 bass 
V:1
 z2 z[Q:1/4=92] [B,D] [_B,^C][=B,D] | [DB]3 [Ec] [DB][CA] | [B,D]3 D ^CD | A3 [Fc] [FB][FA] | %4
[M:3/8] B3 | GGA |[M:3/4] B3 G B[=Fd] | [Ec]3 [Ec] [EB][EA] | [EG]E D2 A2 |[M:3/8] [B,G]3 | GFG | %11
[M:3/4] [FA]3 [Fd] [FA][Fc] | B3 G FG | [FA]3 [Fd] [Fd][E^c] | %14
[M:7/16] [Fd]/-[Fd]/-[Fd]/-[Fd]-<[Fd] |[M:3/8] d^c=c |[M:3/4] B3 G B[=Fd] | %17
 [Ec]3 [Ec] [EB][EA][Q:1/4=91][Q:1/4=89][Q:1/4=88][Q:1/4=87][Q:1/4=85] | %18
 [EG]E D2 A2[Q:1/4=84][Q:1/4=83][Q:1/4=81][Q:1/4=80][Q:1/4=78][Q:1/4=77][Q:1/4=76][Q:1/4=74][Q:1/4=73][Q:1/4=72][Q:1/4=70] | %19
[M:3/8] [B,G]3 |] %20
V:2
 z2 z [G,,G,] [G,,G,][G,,G,] | [G,,G,]3 [G,,G,] [G,,G,][G,,G,] | [G,,G,]3 [G,B,] [G,_B,][G,=B,] | %3
 [D,F,D]3 [D,A,] [D,D][D,D] |[M:3/8][K:treble] [G,DG]3 | [G,B,D][G,B,D][G,CD] | %6
[M:3/4] [G,DG]3 [G,B,D] [G,G][K:bass][B,,G,] | [C,G,]3 [C,G,] [C,C][C,C] | %8
 [C,C][C,G,C] [D,G,B,]2 [D,F,C]2 |[M:3/8] [G,,G,]3 | [G,B,D][G,A,D][G,B,D] | %11
[M:3/4] [D,C]3 [D,A,] [D,D][D,D] | [G,DG]3 [G,B,D][K:bass] [G,A,D][G,B,D] | %13
 [D,C]3 [D,A,] [D,A,][A,,A,] |[M:7/16] A,-<A, z/ z |[M:3/8][K:treble] [G,B,G][G,B,G][G,CG] | %16
[M:3/4] [G,DG]3 [G,B,D] [G,G][K:bass][B,,G,] | [C,G,]3 [C,G,] [C,C][C,C] | %18
 [C,C][C,G,C] [D,G,B,]2 [D,F,C]2 |[M:3/8] [G,,G,]3 |] %20
V:3
 x6 | x6 | x6 | x6 |[M:3/8] x3 | x3 |[M:3/4] x6 | x6 | x6 |[M:3/8] x3 | x3 |[M:3/4] x6 | x6 | x6 | %14
[M:7/16] z/ z/ z C3/2 |[M:3/8] x3 |[M:3/4] x6 | x6 | x6 |[M:3/8] x3 |] %20
V:4
 x6 | x6 | x6 | x6 |[M:3/8][K:treble] x3 | x3 |[M:3/4] x5[K:bass] x | x6 | x6 |[M:3/8] x3 | x3 | %11
[M:3/4] x6 | x4[K:bass] x2 | x6 |[M:7/16] D,/-D,/-D,/-D,-<D, |[M:3/8][K:treble] x3 | %16
[M:3/4] x5[K:bass] x | x6 | x6 |[M:3/8] x3 |] %20

